Simply black circles/scalable/apps/emerald.svg

<svg xmlns="http://www.w3.org/2000/svg" width="48" height="48" viewBox="0 0 12.7 12.7">
  <path fill="#1a1a1a" d="M6.34431561.07286377a6.28928043 6.28928043 0 0 0-6.2895386 6.2895385 6.28928043 6.28928043 0 0 0 6.2895386 6.28902166 6.28928043 6.28928043 0 0 0 6.28902167-6.28902167A6.28928043 6.28928043 0 0 0 6.3443156.07286376zm-.01808691.93637693a5.40704372 5.40704372 0 0 1 5.40690507 5.40690505 5.40704372 5.40704372 0 0 1-5.40690507 5.40690508A5.40704372 5.40704372 0 0 1 .91880694 6.41614575 5.40704372 5.40704372 0 0 1 6.3262287 1.0092407zM3.8194051 3.17603342l.49816066 1.49189862h1.96732179V3.17603342H3.8194051zm2.59829085 0v1.49189862h1.96732178l.4976442-1.49189862H6.41769595zm-2.7037109.09921875L2.8484049 4.66793204h1.32860096l-.46302083-1.39267987zm5.27513013 0L8.5250609 4.66793204h1.32963469l-.8655804-1.39267987zM2.8427206 4.8100424l3.14864482 5.30871979-1.76888429-5.3087198H2.8427206zm1.52238761 0l1.91977934 5.77277408V4.81004239H4.36510821zm2.05258774 0v5.77277408l1.91926287-5.77277408H6.41769595zm2.05982276 0l-1.76630063 5.30871979 3.14606116-5.3087198H8.4775187z"/>
</svg>

<svg xmlns="http://www.w3.org/2000/svg" width="48" height="48" viewBox="0 0 12.7 12.7"><path fill="#1a1a1a" d="M6.344.073a6.29 6.29 0 0 0-6.29 6.29 6.29 6.29 0 0 0 6.29 6.288 6.29 6.29 0 0 0 6.29-6.289 6.29 6.29 0 0 0-6.29-6.29zm-.018.936a5.407 5.407 0 0 1 5.407 5.407 5.407 5.407 0 0 1-5.407 5.407A5.407 5.407 0 0 1 .92 6.416 5.407 5.407 0 0 1 6.326 1.01zM3.82 3.176l.499 1.492h1.967V3.176H3.819zm2.599 0v1.492h1.967l.498-1.492H6.418zm-2.704.1l-.866 1.392h1.329l-.463-1.393zm5.275 0l-.464 1.392h1.33l-.866-1.393zM2.843 4.81l3.148 5.309L4.222 4.81h-1.38zm1.522 0l1.92 5.773V4.81h-1.92zm2.053 0v5.773L8.337 4.81h-1.92zm2.06 0L6.71 10.119 9.857 4.81h-1.38z"/></svg>
